public/logo-colors.svg

<?xml version="1.0" encoding="UTF-8"?>
<svg width="840px" height="560px" viewBox="0 0 840 560" version="1.1" xmlns="http://www.w3.org/2000/svg" xmlns:xlink="http://www.w3.org/1999/xlink">
    <!-- Generator: Sketch 39.1 (31720) - http://www.bohemiancoding.com/sketch -->
    <title>Rectangle 2</title>
    <desc>Created with Sketch.</desc>
    <defs>
        <rect id="path-1" x="0" y="128" width="420" height="280"></rect>
        <mask id="mask-2" maskContentUnits="userSpaceOnUse" maskUnits="objectBoundingBox" x="0" y="0" width="420" height="280" fill="white">
            <use xlink:href="#path-1"></use>
        </mask>
        <rect id="path-3" x="420" y="128" width="420" height="280"></rect>
        <rect id="path-4" x="420" y="408" width="420" height="280"></rect>
        <mask id="mask-5" maskContentUnits="userSpaceOnUse" maskUnits="objectBoundingBox" x="0" y="0" width="420" height="280" fill="white">
            <use xlink:href="#path-4"></use>
        </mask>
        <path d="M152.747924,289.144939 C149.834928,285.66164 148.071698,281.172716 148.071698,276.272467 L148.079881,244.419816 C148.079881,241.822222 150.177461,239.709908 152.756108,239.709908 C155.334462,239.709908 157.432334,241.822222 157.432334,244.419816 L157.424151,276.272467 C157.424151,281.172716 155.660921,285.66164 152.747924,289.144939 L152.747924,289.144939 Z M187.819622,276.272467 C187.819622,287.310476 179.00289,296.290092 168.044153,296.290092 C163.630088,296.290092 159.512086,294.815391 156.210085,292.353923 C159.902258,288.025581 162.100377,282.412879 162.100377,276.272467 L162.10856,244.419816 C162.10856,239.225806 157.912816,235 152.756108,235 C147.599107,235 143.403655,239.225806 143.403655,244.419816 L143.395472,276.272467 C143.395472,282.412879 145.741184,288.025581 149.433357,292.353923 C146.131356,294.815391 142.013354,296.290092 137.599289,296.290092 C126.640552,296.290092 117.676226,287.310476 117.676226,276.272467 L117.676226,237.415209 L113,237.415209 L113,276.272467 C113,289.906892 124.111298,301 137.648682,301 C143.387873,301 148.710587,298.991107 152.895518,295.654836 C157.080448,298.991107 162.280412,301 168.019603,301 C181.556694,301 192.496141,289.906892 192.496141,276.272467 L192.496141,237.415209 L187.819622,237.415209 L187.819622,276.272467 Z M206.532448,299.752324 L211.208674,299.752324 L211.208674,237.28748 L206.532448,237.28748 L206.532448,299.752324 Z M252.148394,236.198382 C242.920738,236.198382 234.763937,240.901219 229.913229,248.051675 L229.913229,237.287686 L225.237003,237.287686 L225.237003,299.75253 L229.913229,299.75253 L229.913229,263.308124 L229.91586,263.308124 C229.91586,250.961594 239.889374,240.917424 252.148394,240.917424 L252.148394,236.198382 Z M260.912694,286.450288 C251.813926,275.579932 252.340294,259.257161 262.495012,249.019704 C272.64973,238.782246 288.840579,238.25159 299.62308,247.424493 L260.912694,286.450288 Z M306.246955,247.413886 C305.740169,246.823416 305.210002,246.246795 304.654116,245.686085 C292.119198,233.049034 271.723253,233.049034 259.188335,245.686085 C246.653418,258.323135 246.653418,278.885265 259.188335,291.522315 C271.721499,304.157303 292.113061,304.159071 304.648563,291.527619 L301.341886,288.194 C291.186876,298.426154 274.999826,298.955042 264.219371,289.783907 L283.569011,270.276313 L306.246955,247.413886 Z M310.570419,237.824206 L312.206513,237.824206 L312.206513,242.071521 L312.704824,242.071521 L312.704824,237.824206 L314.347933,237.824206 L314.347933,237.357193 L310.570419,237.357193 L310.570419,237.824206 Z M319.26291,237.357076 L317.633829,241.448523 L316.012056,237.357076 L315.246616,237.357076 L315.246616,242.071403 L315.723883,242.071403 L315.723883,237.859741 L317.39505,242.071403 L317.851274,242.071403 L319.515426,237.873884 L319.515426,242.071403 L320,242.071403 L320,237.357076 L319.26291,237.357076 Z" id="path-6"></path>
    </defs>
    <g id="M-—-Layout" stroke="none" stroke-width="1" fill="none" fill-rule="evenodd">
        <g id="✅-M-—-Logo" transform="translate(-180.000000, -1952.000000)">
            <g id="Color" transform="translate(180.000000, 1824.000000)">
                <use id="Rectangle-2" stroke="#F1F4F5" mask="url(#mask-2)" stroke-width="2" fill="#FFFFFF" xlink:href="#path-1"></use>
                <rect id="Rectangle-2" fill="#2391D3" x="0" y="408" width="420" height="280"></rect>
                <g id="Rectangle-2">
                    <use fill="#8D989F" xlink:href="#path-3"></use>
                    <use fill-opacity="0.72" fill="#000000" xlink:href="#path-3"></use>
                </g>
                <use id="Rectangle-2" stroke="#F1F4F5" mask="url(#mask-5)" stroke-width="2" fill="#FFFFFF" xlink:href="#path-4"></use>
                <g id="Logo">
                    <use fill="#8D989F" xlink:href="#path-6"></use>
                    <use fill-opacity="0.72" fill="#000000" xlink:href="#path-6"></use>
                </g>
                <path d="M152.747924,569.144939 C149.834928,565.66164 148.071698,561.172716 148.071698,556.272467 L148.079881,524.419816 C148.079881,521.822222 150.177461,519.709908 152.756108,519.709908 C155.334462,519.709908 157.432334,521.822222 157.432334,524.419816 L157.424151,556.272467 C157.424151,561.172716 155.660921,565.66164 152.747924,569.144939 L152.747924,569.144939 Z M187.819622,556.272467 C187.819622,567.310476 179.00289,576.290092 168.044153,576.290092 C163.630088,576.290092 159.512086,574.815391 156.210085,572.353923 C159.902258,568.025581 162.100377,562.412879 162.100377,556.272467 L162.10856,524.419816 C162.10856,519.225806 157.912816,515 152.756108,515 C147.599107,515 143.403655,519.225806 143.403655,524.419816 L143.395472,556.272467 C143.395472,562.412879 145.741184,568.025581 149.433357,572.353923 C146.131356,574.815391 142.013354,576.290092 137.599289,576.290092 C126.640552,576.290092 117.676226,567.310476 117.676226,556.272467 L117.676226,517.415209 L113,517.415209 L113,556.272467 C113,569.906892 124.111298,581 137.648682,581 C143.387873,581 148.710587,578.991107 152.895518,575.654836 C157.080448,578.991107 162.280412,581 168.019603,581 C181.556694,581 192.496141,569.906892 192.496141,556.272467 L192.496141,517.415209 L187.819622,517.415209 L187.819622,556.272467 Z M206.532448,579.752324 L211.208674,579.752324 L211.208674,517.28748 L206.532448,517.28748 L206.532448,579.752324 Z M252.148394,516.198382 C242.920738,516.198382 234.763937,520.901219 229.913229,528.051675 L229.913229,517.287686 L225.237003,517.287686 L225.237003,579.75253 L229.913229,579.75253 L229.913229,543.308124 L229.91586,543.308124 C229.91586,530.961594 239.889374,520.917424 252.148394,520.917424 L252.148394,516.198382 Z M260.912694,566.450288 C251.813926,555.579932 252.340294,539.257161 262.495012,529.019704 C272.64973,518.782246 288.840579,518.25159 299.62308,527.424493 L260.912694,566.450288 Z M306.246955,527.413886 C305.740169,526.823416 305.210002,526.246795 304.654116,525.686085 C292.119198,513.049034 271.723253,513.049034 259.188335,525.686085 C246.653418,538.323135 246.653418,558.885265 259.188335,571.522315 C271.721499,584.157303 292.113061,584.159071 304.648563,571.527619 L301.341886,568.194 C291.186876,578.426154 274.999826,578.955042 264.219371,569.783907 L283.569011,550.276313 L306.246955,527.413886 Z M310.570419,517.824206 L312.206513,517.824206 L312.206513,522.071521 L312.704824,522.071521 L312.704824,517.824206 L314.347933,517.824206 L314.347933,517.357193 L310.570419,517.357193 L310.570419,517.824206 Z M319.26291,517.357076 L317.633829,521.448523 L316.012056,517.357076 L315.246616,517.357076 L315.246616,522.071403 L315.723883,522.071403 L315.723883,517.859741 L317.39505,522.071403 L317.851274,522.071403 L319.515426,517.873884 L319.515426,522.071403 L320,522.071403 L320,517.357076 L319.26291,517.357076 Z" id="Logo" fill="#FFFFFF"></path>
                <path d="M572.747924,289.144939 C569.834928,285.66164 568.071698,281.172716 568.071698,276.272467 L568.079881,244.419816 C568.079881,241.822222 570.177461,239.709908 572.756108,239.709908 C575.334462,239.709908 577.432334,241.822222 577.432334,244.419816 L577.424151,276.272467 C577.424151,281.172716 575.660921,285.66164 572.747924,289.144939 L572.747924,289.144939 Z M607.819622,276.272467 C607.819622,287.310476 599.00289,296.290092 588.044153,296.290092 C583.630088,296.290092 579.512086,294.815391 576.210085,292.353923 C579.902258,288.025581 582.100377,282.412879 582.100377,276.272467 L582.10856,244.419816 C582.10856,239.225806 577.912816,235 572.756108,235 C567.599107,235 563.403655,239.225806 563.403655,244.419816 L563.395472,276.272467 C563.395472,282.412879 565.741184,288.025581 569.433357,292.353923 C566.131356,294.815391 562.013354,296.290092 557.599289,296.290092 C546.640552,296.290092 537.676226,287.310476 537.676226,276.272467 L537.676226,237.415209 L533,237.415209 L533,276.272467 C533,289.906892 544.111298,301 557.648682,301 C563.387873,301 568.710587,298.991107 572.895518,295.654836 C577.080448,298.991107 582.280412,301 588.019603,301 C601.556694,301 612.496141,289.906892 612.496141,276.272467 L612.496141,237.415209 L607.819622,237.415209 L607.819622,276.272467 Z M626.532448,299.752324 L631.208674,299.752324 L631.208674,237.28748 L626.532448,237.28748 L626.532448,299.752324 Z M672.148394,236.198382 C662.920738,236.198382 654.763937,240.901219 649.913229,248.051675 L649.913229,237.287686 L645.237003,237.287686 L645.237003,299.75253 L649.913229,299.75253 L649.913229,263.308124 L649.91586,263.308124 C649.91586,250.961594 659.889374,240.917424 672.148394,240.917424 L672.148394,236.198382 Z M680.912694,286.450288 C671.813926,275.579932 672.340294,259.257161 682.495012,249.019704 C692.64973,238.782246 708.840579,238.25159 719.62308,247.424493 L680.912694,286.450288 Z M726.246955,247.413886 C725.740169,246.823416 725.210002,246.246795 724.654116,245.686085 C712.119198,233.049034 691.723253,233.049034 679.188335,245.686085 C666.653418,258.323135 666.653418,278.885265 679.188335,291.522315 C691.721499,304.157303 712.113061,304.159071 724.648563,291.527619 L721.341886,288.194 C711.186876,298.426154 694.999826,298.955042 684.219371,289.783907 L703.569011,270.276313 L726.246955,247.413886 Z M730.570419,237.824206 L732.206513,237.824206 L732.206513,242.071521 L732.704824,242.071521 L732.704824,237.824206 L734.347933,237.824206 L734.347933,237.357193 L730.570419,237.357193 L730.570419,237.824206 Z M739.26291,237.357076 L737.633829,241.448523 L736.012056,237.357076 L735.246616,237.357076 L735.246616,242.071403 L735.723883,242.071403 L735.723883,237.859741 L737.39505,242.071403 L737.851274,242.071403 L739.515426,237.873884 L739.515426,242.071403 L740,242.071403 L740,237.357076 L739.26291,237.357076 Z" id="Logo" fill="#FFFFFF"></path>
                <path d="M572.747924,569.144939 C569.834928,565.66164 568.071698,561.172716 568.071698,556.272467 L568.079881,524.419816 C568.079881,521.822222 570.177461,519.709908 572.756108,519.709908 C575.334462,519.709908 577.432334,521.822222 577.432334,524.419816 L577.424151,556.272467 C577.424151,561.172716 575.660921,565.66164 572.747924,569.144939 L572.747924,569.144939 Z M607.819622,556.272467 C607.819622,567.310476 599.00289,576.290092 588.044153,576.290092 C583.630088,576.290092 579.512086,574.815391 576.210085,572.353923 C579.902258,568.025581 582.100377,562.412879 582.100377,556.272467 L582.10856,524.419816 C582.10856,519.225806 577.912816,515 572.756108,515 C567.599107,515 563.403655,519.225806 563.403655,524.419816 L563.395472,556.272467 C563.395472,562.412879 565.741184,568.025581 569.433357,572.353923 C566.131356,574.815391 562.013354,576.290092 557.599289,576.290092 C546.640552,576.290092 537.676226,567.310476 537.676226,556.272467 L537.676226,517.415209 L533,517.415209 L533,556.272467 C533,569.906892 544.111298,581 557.648682,581 C563.387873,581 568.710587,578.991107 572.895518,575.654836 C577.080448,578.991107 582.280412,581 588.019603,581 C601.556694,581 612.496141,569.906892 612.496141,556.272467 L612.496141,517.415209 L607.819622,517.415209 L607.819622,556.272467 Z M626.532448,579.752324 L631.208674,579.752324 L631.208674,517.28748 L626.532448,517.28748 L626.532448,579.752324 Z M672.148394,516.198382 C662.920738,516.198382 654.763937,520.901219 649.913229,528.051675 L649.913229,517.287686 L645.237003,517.287686 L645.237003,579.75253 L649.913229,579.75253 L649.913229,543.308124 L649.91586,543.308124 C649.91586,530.961594 659.889374,520.917424 672.148394,520.917424 L672.148394,516.198382 Z M680.912694,566.450288 C671.813926,555.579932 672.340294,539.257161 682.495012,529.019704 C692.64973,518.782246 708.840579,518.25159 719.62308,527.424493 L680.912694,566.450288 Z M726.246955,527.413886 C725.740169,526.823416 725.210002,526.246795 724.654116,525.686085 C712.119198,513.049034 691.723253,513.049034 679.188335,525.686085 C666.653418,538.323135 666.653418,558.885265 679.188335,571.522315 C691.721499,584.157303 712.113061,584.159071 724.648563,571.527619 L721.341886,568.194 C711.186876,578.426154 694.999826,578.955042 684.219371,569.783907 L703.569011,550.276313 L726.246955,527.413886 Z M730.570419,517.824206 L732.206513,517.824206 L732.206513,522.071521 L732.704824,522.071521 L732.704824,517.824206 L734.347933,517.824206 L734.347933,517.357193 L730.570419,517.357193 L730.570419,517.824206 Z M739.26291,517.357076 L737.633829,521.448523 L736.012056,517.357076 L735.246616,517.357076 L735.246616,522.071403 L735.723883,522.071403 L735.723883,517.859741 L737.39505,522.071403 L737.851274,522.071403 L739.515426,517.873884 L739.515426,522.071403 L740,522.071403 L740,517.357076 L739.26291,517.357076 Z" id="Logo" fill="#FE5EBD"></path>
            </g>
        </g>
    </g>
</svg>

<svg xmlns="http://www.w3.org/2000/svg" width="840" height="560" viewBox="0 0 840 560" xmlns:xlink="http://www.w3.org/1999/xlink">
  <defs>
    <path id="a" d="M0 128h420v280H0z"/>
    <mask id="c" width="420" height="280" x="0" y="0" fill="#fff">
      <use xlink:href="#a"/>
    </mask>
    <path id="d" d="M420 128h420v280H420z"/>
    <path id="b" d="M420 408h420v280H420z"/>
    <mask id="e" width="420" height="280" x="0" y="0" fill="#fff">
      <use xlink:href="#b"/>
    </mask>
    <path id="f" d="M152.748 289.145c-2.913-3.483-4.676-7.972-4.676-12.873l.008-31.852c0-2.598 2.097-4.71 4.676-4.71 2.578 0 4.676 2.112 4.676 4.71l-.008 31.852c0 4.9-1.763 9.39-4.676 12.873zm35.072-12.873c0 11.038-8.817 20.018-19.776 20.018-4.414 0-8.532-1.475-11.834-3.936 3.692-4.328 5.89-9.94 5.89-16.082l.01-31.852c0-5.194-4.197-9.42-9.354-9.42-5.157 0-9.352 4.226-9.352 9.42l-.01 31.852c0 6.14 2.347 11.754 6.04 16.082-3.303 2.46-7.42 3.936-11.835 3.936-10.96 0-19.926-8.98-19.926-20.018v-38.857H113v38.857C113 289.907 124.11 301 137.65 301c5.738 0 11.06-2.01 15.246-5.345C157.08 298.99 162.28 301 168.02 301c13.537 0 24.476-11.093 24.476-24.728v-38.857h-4.676v38.857zm18.712 23.48h4.677v-62.465h-4.68v62.465zm45.616-63.554c-9.227 0-17.384 4.703-22.235 11.854v-10.764h-4.676v62.465h4.676v-36.445h.003c0-12.346 9.973-22.39 22.232-22.39v-4.72zm8.765 50.252c-9.1-10.87-8.573-27.193 1.582-37.43 10.155-10.238 26.346-10.768 37.128-1.596l-38.71 39.026zm45.334-39.036c-.507-.59-1.037-1.167-1.593-1.728-12.535-12.637-32.93-12.637-45.466 0-12.535 12.637-12.535 33.2 0 45.836 12.533 12.635 32.925 12.637 45.46.006l-3.306-3.334c-10.155 10.232-26.342 10.76-37.123 1.59l19.35-19.508 22.675-22.862zm4.323-9.59h1.637v4.248h.498v-4.248h1.643v-.467h-3.778v.467zm8.693-.467l-1.63 4.092-1.62-4.095h-.766v4.714h.477v-4.21l1.67 4.21h.457l1.667-4.197v4.197H320v-4.712h-.737z"/>
  </defs>
  <g fill="none" fill-rule="evenodd" transform="translate(0 -128)">
    <use fill="#FFF" stroke="#F1F4F5" stroke-width="2" mask="url(#c)" xlink:href="#a"/>
    <path fill="#2391D3" d="M0 408h420v280H0z"/>
    <use fill="#8D989F" xlink:href="#d"/>
    <use fill="#000" fill-opacity=".72" xlink:href="#d"/>
    <use fill="#FFF" stroke="#F1F4F5" stroke-width="2" mask="url(#e)" xlink:href="#b"/>
    <use fill="#8D989F" xlink:href="#f"/>
    <use fill="#000" fill-opacity=".72" xlink:href="#f"/>
    <path fill="#FFF" d="M152.748 569.145c-2.913-3.483-4.676-7.972-4.676-12.873l.008-31.852c0-2.598 2.097-4.71 4.676-4.71 2.578 0 4.676 2.112 4.676 4.71l-.008 31.852c0 4.9-1.763 9.39-4.676 12.873zm35.072-12.873c0 11.038-8.817 20.018-19.776 20.018-4.414 0-8.532-1.475-11.834-3.936 3.692-4.328 5.89-9.94 5.89-16.082l.01-31.852c0-5.194-4.197-9.42-9.354-9.42-5.157 0-9.352 4.226-9.352 9.42l-.01 31.852c0 6.14 2.347 11.754 6.04 16.082-3.303 2.46-7.42 3.936-11.835 3.936-10.96 0-19.926-8.98-19.926-20.018v-38.857H113v38.857C113 569.907 124.11 581 137.65 581c5.738 0 11.06-2.01 15.246-5.345C157.08 578.99 162.28 581 168.02 581c13.537 0 24.476-11.093 24.476-24.728v-38.857h-4.676v38.857zm18.712 23.48h4.677v-62.465h-4.68v62.465zm45.616-63.554c-9.227 0-17.384 4.703-22.235 11.854v-10.764h-4.676v62.465h4.676v-36.445h.003c0-12.346 9.973-22.39 22.232-22.39v-4.72zm8.765 50.252c-9.1-10.87-8.573-27.193 1.582-37.43 10.155-10.238 26.346-10.768 37.128-1.596l-38.71 39.026zm45.334-39.036c-.507-.59-1.037-1.167-1.593-1.728-12.535-12.637-32.93-12.637-45.466 0-12.535 12.637-12.535 33.2 0 45.836 12.533 12.635 32.925 12.637 45.46.006l-3.306-3.334c-10.155 10.232-26.342 10.76-37.123 1.59l19.35-19.508 22.675-22.862zm4.323-9.59h1.637v4.248h.498v-4.248h1.643v-.467h-3.778v.467zm8.693-.467l-1.63 4.092-1.62-4.095h-.766v4.714h.477v-4.21l1.67 4.21h.457l1.667-4.197v4.197H320v-4.712h-.737zm253.485-228.212c-2.913-3.483-4.676-7.972-4.676-12.873l.008-31.852c0-2.598 2.097-4.71 4.676-4.71 2.578 0 4.676 2.112 4.676 4.71l-.008 31.852c0 4.9-1.763 9.39-4.676 12.873zm35.072-12.873c0 11.038-8.817 20.018-19.776 20.018-4.414 0-8.532-1.475-11.834-3.936 3.692-4.328 5.89-9.94 5.89-16.082l.01-31.852c0-5.194-4.197-9.42-9.354-9.42-5.157 0-9.352 4.226-9.352 9.42l-.01 31.852c0 6.14 2.347 11.754 6.04 16.082-3.303 2.46-7.42 3.936-11.835 3.936-10.96 0-19.926-8.98-19.926-20.018v-38.857H533v38.857C533 289.907 544.11 301 557.65 301c5.738 0 11.06-2.01 15.246-5.345C577.08 298.99 582.28 301 588.02 301c13.537 0 24.476-11.093 24.476-24.728v-38.857h-4.676v38.857zm18.712 23.48h4.677v-62.465h-4.68v62.465zm45.616-63.554c-9.227 0-17.384 4.703-22.235 11.854v-10.764h-4.676v62.465h4.676v-36.445h.003c0-12.346 9.973-22.39 22.232-22.39v-4.72zm8.765 50.252c-9.1-10.87-8.573-27.193 1.582-37.43 10.155-10.238 26.346-10.768 37.128-1.596l-38.71 39.026zm45.334-39.036c-.507-.59-1.037-1.167-1.593-1.728-12.535-12.637-32.93-12.637-45.466 0-12.535 12.637-12.535 33.2 0 45.836 12.533 12.635 32.925 12.637 45.46.006l-3.306-3.334c-10.155 10.232-26.342 10.76-37.123 1.59l19.35-19.508 22.675-22.862zm4.323-9.59h1.637v4.248h.498v-4.248h1.643v-.467h-3.778v.467zm8.693-.467l-1.63 4.092-1.62-4.095h-.766v4.714h.477v-4.21l1.67 4.21h.457l1.667-4.197v4.197H740v-4.712h-.737z"/>
    <path fill="#FE5EBD" d="M572.748 569.145c-2.913-3.483-4.676-7.972-4.676-12.873l.008-31.852c0-2.598 2.097-4.71 4.676-4.71 2.578 0 4.676 2.112 4.676 4.71l-.008 31.852c0 4.9-1.763 9.39-4.676 12.873zm35.072-12.873c0 11.038-8.817 20.018-19.776 20.018-4.414 0-8.532-1.475-11.834-3.936 3.692-4.328 5.89-9.94 5.89-16.082l.01-31.852c0-5.194-4.197-9.42-9.354-9.42-5.157 0-9.352 4.226-9.352 9.42l-.01 31.852c0 6.14 2.347 11.754 6.04 16.082-3.303 2.46-7.42 3.936-11.835 3.936-10.96 0-19.926-8.98-19.926-20.018v-38.857H533v38.857C533 569.907 544.11 581 557.65 581c5.738 0 11.06-2.01 15.246-5.345C577.08 578.99 582.28 581 588.02 581c13.537 0 24.476-11.093 24.476-24.728v-38.857h-4.676v38.857zm18.712 23.48h4.677v-62.465h-4.68v62.465zm45.616-63.554c-9.227 0-17.384 4.703-22.235 11.854v-10.764h-4.676v62.465h4.676v-36.445h.003c0-12.346 9.973-22.39 22.232-22.39v-4.72zm8.765 50.252c-9.1-10.87-8.573-27.193 1.582-37.43 10.155-10.238 26.346-10.768 37.128-1.596l-38.71 39.026zm45.334-39.036c-.507-.59-1.037-1.167-1.593-1.728-12.535-12.637-32.93-12.637-45.466 0-12.535 12.637-12.535 33.2 0 45.836 12.533 12.635 32.925 12.637 45.46.006l-3.306-3.334c-10.155 10.232-26.342 10.76-37.123 1.59l19.35-19.508 22.675-22.862zm4.323-9.59h1.637v4.248h.498v-4.248h1.643v-.467h-3.778v.467zm8.693-.467l-1.63 4.092-1.62-4.095h-.766v4.714h.477v-4.21l1.67 4.21h.457l1.667-4.197v4.197H740v-4.712h-.737z"/>
  </g>
</svg>
